X: 35188
T: Rooms Of Dooagh, The
R: jig
M: 6/8
K: Dmixolydian
|:GEE cEE|~G3 G2A|GEE cBc|ded dcA|
GEE cEE|~G3 G2g|fed cAG|1 Add dcA:|2 Add def||
|:~g3 ged|cAB cde|~g3 ged|eaa age|
~g3 ged|cAB cde|=fed cAG|1 Add def:|2 Add dcA||

